X:1
T:Watford, 96.96 D
T:Arr. from German chorale by Peter Maurice
T:Watford, 96.96 D
T:Public Domain
C:Arr. from German chorale by Peter Maurice
Z:Public Domain
%%score ( 1 2 ) ( 3 4 )
L:1/8
M:4/4
K:D
V:1 treble 
V:2 treble 
V:3 bass 
V:4 bass 
V:1
 D2 | [DF]2 [EA]2 [Dd]2 [Fc]2 | [DB]2 [GB]2 [GB]4 | [FA]2 [FB]2 [EG]2 (FG) | [EA]2 [CE]2 [DF]4- | %5
 [DF]2 [EA]2 [Dd]2 [Ec]2 | [FB]2 [FA]2 [EA]2 [FA]2 | [EA]4 [E^G]2 [EA]2 | [DF]2 (cB) [EA]2 [E^G]2 | %9
 [EA]6 [CE]2 | [EG]2 [DF]2 [DF]2 [CE]2 | [A,A]2 (B,C) [DG]4 | [DF]2 D2 [DB]2 [GB]2 | %13
 [Gc]2 [Fd]2 [EA]4- | [EA]2 [FA]2 [Af]2 [Gc]2 | [Fd]2 [E^A]2 [DB]2 [Gc]2 | [Ge]4 [Fd]2 [Ad]2 | %17
 [GB]2 [EG]2 [DF]2 [CE]2 x | D6 |] %19
V:2
 D2 | x8 | x8 | x6 F2 | x8 | x8 | x8 | x8 | x2 F2 x4 | x8 | x8 | x2 G2 x4 | x2 D2 x4 | x8 | x8 | %15
 x8 | x8 | x9 | D6 |] %19
V:3
 [D,F,]2 | [D,A,]2 [C,A,]2 [B,,F,]2 [F,^A,]2 | [G,B,]2 [G,D]2 [D,D]4 | %3
 [D,D]2 [^D,B,]2 [E,B,]2 [=D,=D]2 | [C,A,]2 [A,,A,]2 [D,A,]4- | [D,A,]2 [C,A,]2 [B,,F,]2 [C,^A,]2 | %6
 [D,B,]2 (CD) [C,E]2 [D,D]2 | [E,C]4 [E,B,]2 [C,A,]2 | [D,A,]2 [D,D]2 [E,C]2 [E,B,]2 | %9
 [A,,C]6 A,2 | [C,A,]2 [D,A,]2 [A,,A,]2 (A,G,) | [F,D]2 [E,G,]2 [D,A,]4 | %12
 [D,A,]2 [F,A,]2 [G,B,]2 [G,D]2 | [E,E]2 [D,A,]2 [C,A,]4- | [C,A,]2 [D,A,]2 [D,D]2 [^A,E]2 | %15
 [B,D]2 [F,C]2 [G,B,]2 [E,G,]2 | [C,A,]4 [D,A,]2 [F,D]2 | [G,D]2 [G,,B,]2 A,,2 z G, x | [D,F,]6 |] %19
V:4
 x2 | x8 | x8 | x8 | x8 | x8 | x2 F,2 x4 | x8 | x8 | x6 A,2 | x6 C2 | x8 | x8 | x8 | x8 | x8 | x8 | %17
 x4 A,3 A,,2 | x6 |] %19

